X: 08027
T: DAN PEARL'S JIG
C: Bob McQuillen 10 Apr 91
B: Bob's Note Book 8 #27
%R: jig
Z: 2021 John Chambers <jc:trillian.mit.edu>
M: 6/8
L: 1/8
K: G
A \
| BAG EGE | DB,D GBd | edB dBA | GAB AGA |\
| BAG EGE | DB,D GBd | edB dBA | BGG G2 :|
|: d \
| ede dBd | ede gag | edB ABA | GEE E2d |\
| ede dBd | ede g2a | bag ged | e2f g2 :|
%%begintext align
%% Dan is one
%% of the spark plugs of the Thursday Night Dances at
%% Missile Hall (AKA Cambridge, MA. VFW). He's
%% been known to come up to N.H. and call dances, and
%% it's always a pleasure when I get to play for him.
%% I hope that happens again real soon, Dan!
%%endtext
